images/payments/sepa.svg

<svg width="70" height="30" viewBox="0 0 70 30" fill="none" xmlns="http://www.w3.org/2000/svg">
<path d="M35.4401 15.8663C34.6886 15.8663 33.9976 15.6917 33.4355 15.4006L33.6258 14.1945C34.1959 14.4856 34.7838 14.6517 35.4224 14.6517C36.1312 14.6517 36.4416 14.4025 36.4416 13.9695C36.4416 12.9884 33.4614 13.4044 33.4614 11.3167C33.4614 10.2604 34.1701 9.4043 35.811 9.4043C36.4416 9.4043 37.1246 9.52925 37.6253 9.72872L37.4439 10.9092C36.9085 10.7431 36.3723 10.643 35.8804 10.643C35.0773 10.643 34.8612 10.9092 34.8612 11.2414C34.8612 12.2139 37.8414 11.7653 37.8414 13.8771C37.8422 15.1096 36.952 15.8663 35.4401 15.8663Z" fill="#005DA0"/>
<path d="M43.4586 14.5274V15.7498H39.0527V9.51367H43.4578V10.7524H40.5122V11.9911H42.9047V13.1048H40.5122V14.5267H43.4586V14.5274Z" fill="#005DA0"/>
<path d="M47.07 13.7203H46.2064V15.749H44.7461V9.51367H47.07C48.8673 9.51367 49.6011 10.1951 49.6011 11.6503C49.6011 12.9643 48.8754 13.7203 47.07 13.7203ZM47.07 10.6856H46.2064V12.598H47.07C47.7868 12.598 48.0981 12.4234 48.0981 11.6418C48.0981 10.8936 47.8215 10.6856 47.07 10.6856Z" fill="#005DA0"/>
<path d="M54.053 14.536H51.7033L51.3404 15.7498H49.8027L52.0395 9.51367H53.7764L56.0398 15.7498H54.4158L54.053 14.536ZM52.7048 11.2266L52.0565 13.364H53.7063L53.0846 11.2266L52.9112 10.57H52.8854L52.7048 11.2266Z" fill="#005DA0"/>
<path d="M35.3883 19.7972L35.3722 20.384H33.4668V17.4883H34.149V19.7972H35.3883Z" fill="#005DA0"/>
<path d="M37.2092 20.1603L37.1971 20.1564C37.0487 20.3264 36.8157 20.4227 36.5391 20.4227C36.0779 20.4227 35.7852 20.1712 35.7852 19.6465C35.7852 19.2142 36.098 18.917 36.652 18.917C36.8326 18.917 36.989 18.9441 37.1172 18.9829V18.8479C37.1172 18.612 36.989 18.5041 36.656 18.5041C36.3875 18.5041 36.2109 18.5429 35.9859 18.6314L35.9335 18.1525C36.1787 18.0524 36.4552 17.998 36.7681 17.998C37.4865 17.998 37.7349 18.2953 37.7349 18.9364V20.3846H37.2575L37.2092 20.1603ZM37.1164 19.3803C37.0568 19.357 36.9358 19.3299 36.7713 19.3299C36.4947 19.3299 36.3657 19.4347 36.3657 19.6388C36.3657 19.867 36.506 19.9477 36.7108 19.9477C36.9229 19.9477 37.1156 19.8243 37.1156 19.6737V19.3803H37.1164Z" fill="#005DA0"/>
<path d="M39.0801 20.4303C38.7873 20.4303 38.5229 20.3759 38.3181 20.2681L38.3826 19.7737C38.5833 19.8854 38.868 19.9398 39.0768 19.9398C39.326 19.9398 39.43 19.8435 39.43 19.7038C39.43 19.3289 38.3027 19.5455 38.3027 18.7275C38.3027 18.3068 38.5995 18.0049 39.2252 18.0049C39.4695 18.0049 39.7106 18.0515 39.9146 18.1322L39.863 18.6227C39.6622 18.542 39.3937 18.5032 39.2131 18.5032C39.0083 18.5032 38.8962 18.5808 38.8962 18.7003C38.8962 19.055 40.0074 18.8431 40.0074 19.6503C40.0074 20.1175 39.7388 20.4303 39.0801 20.4303Z" fill="#005DA0"/>
<path d="M41.2302 18.4923V19.6891C41.2302 19.8707 41.3261 19.9475 41.5188 19.9475C41.5834 19.9475 41.6672 19.9359 41.7116 19.9204L41.7479 20.3565C41.6632 20.3915 41.5027 20.4225 41.331 20.4225C40.8455 20.4225 40.6085 20.1524 40.6085 19.7077V18.4915H40.3359V18.0437H40.6367L40.7407 17.5144L41.2302 17.4717V18.0429H41.772V18.4907H41.2302V18.4923Z" fill="#005DA0"/>
<path d="M42.9746 20.4303C42.6819 20.4303 42.4174 20.3759 42.2126 20.2681L42.2771 19.7737C42.4779 19.8854 42.7625 19.9398 42.9714 19.9398C43.2205 19.9398 43.3245 19.8435 43.3245 19.7038C43.3245 19.3289 42.1973 19.5455 42.1973 18.7275C42.1973 18.3068 42.494 18.0049 43.1197 18.0049C43.3641 18.0049 43.6051 18.0515 43.8092 18.1322L43.7575 18.6227C43.5568 18.542 43.2883 18.5032 43.1076 18.5032C42.9028 18.5032 42.7907 18.5808 42.7907 18.7003C42.7907 19.055 43.9019 18.8431 43.9019 19.6503C43.9011 20.1175 43.6326 20.4303 42.9746 20.4303Z" fill="#005DA0"/>
<path d="M46.013 18.6161C45.8888 18.5734 45.7404 18.5431 45.6001 18.5431C45.147 18.5431 44.9986 18.7247 44.9986 19.2191C44.9986 19.7213 45.2115 19.9177 45.5888 19.9177C45.7493 19.9177 45.9017 19.8866 46.0299 19.8292L46.0743 20.2964C45.9299 20.3818 45.713 20.4314 45.4526 20.4314C44.7341 20.4314 44.3535 20.0372 44.3535 19.2191C44.3535 18.443 44.6865 18.0068 45.4647 18.0068C45.6695 18.0068 45.8977 18.0495 46.0501 18.1077L46.013 18.6161Z" fill="#005DA0"/>
<path d="M48.0627 20.3833V18.8931C48.0627 18.6533 47.9385 18.5299 47.6732 18.5299C47.4926 18.5299 47.3362 18.6075 47.2604 18.7076V20.3833H46.6387V17.3797L47.2604 17.3486V17.8811L47.2523 18.19L47.2644 18.1977C47.445 18.051 47.6652 17.9967 47.87 17.9967C48.3836 17.9967 48.6844 18.3289 48.6844 18.8923V20.3825H48.0627V20.3833Z" fill="#005DA0"/>
<path d="M49.3379 20.3839V18.0594L49.8354 18.0361L49.8919 18.4265H49.9039C50.0563 18.1448 50.2934 18.0059 50.57 18.0059C50.6788 18.0059 50.7708 18.0214 50.8345 18.0408L50.7942 18.6314C50.7184 18.6081 50.6256 18.5926 50.5297 18.5926C50.2047 18.5926 49.9636 18.8208 49.9636 19.2104V20.3839H49.3379Z" fill="#005DA0"/>
<path d="M51.7498 17.7933C51.5095 17.7933 51.3926 17.7273 51.3926 17.5387C51.3926 17.3726 51.5087 17.2803 51.7498 17.2803C51.9949 17.2803 52.103 17.3688 52.103 17.5387C52.103 17.7087 51.9949 17.7933 51.7498 17.7933ZM51.4289 20.384V18.0595L52.0667 18.0323V20.384H51.4289Z" fill="#005DA0"/>
<path d="M52.961 20.3839V18.4887H52.6562V18.0447H52.961V17.9438C52.961 17.5922 53.2134 17.3027 53.7956 17.3027C53.9319 17.3027 54.0843 17.3221 54.1891 17.3524L54.1528 17.7389C54.0811 17.7234 54.0004 17.7156 53.9206 17.7156C53.6763 17.7156 53.5835 17.808 53.5835 17.9586V18.0439H54.1012V18.4879H53.5835V20.3832H52.961V20.3839Z" fill="#005DA0"/>
<path d="M55.3767 18.4923V19.6891C55.3767 19.8707 55.4726 19.9475 55.6653 19.9475C55.7298 19.9475 55.8137 19.9359 55.858 19.9204L55.8943 20.3565C55.8097 20.3915 55.6492 20.4225 55.4775 20.4225C54.992 20.4225 54.755 20.1524 54.755 19.7077V18.4915H54.4824V18.0437H54.7832L54.8872 17.5144L55.3767 17.4717V18.0429H55.9177V18.4907H55.3767V18.4923Z" fill="#005DA0"/>
<path d="M22.3908 10.8738L19.6089 8.86289L16.8278 6.85118C16.6343 6.71147 16.3585 6.74873 16.2134 6.93422L13.7645 10.0721C13.7266 10.121 13.7024 10.1753 13.6895 10.232C13.6468 10.3919 13.7048 10.5688 13.8508 10.6744L15.5078 11.8727L17.747 13.4917L19.4041 14.69C19.55 14.7956 19.7427 14.8002 19.8903 14.7164C19.9427 14.6885 19.9911 14.6512 20.029 14.6023L22.4779 11.4652C22.6238 11.279 22.5843 11.0143 22.3908 10.8738ZM16.6472 7.09178L18.3042 8.29011L19.4242 9.09961L20.5443 9.9091L22.2013 11.1074C22.2642 11.1532 22.2779 11.2394 22.2311 11.2991L21.8336 11.8261L19.958 10.4695L17.926 9.00026L16.0505 7.6436L16.448 7.11661C16.4948 7.05763 16.5843 7.04598 16.6472 7.09178ZM19.7823 14.437C19.7621 14.4634 19.7306 14.4766 19.6984 14.4828C19.6621 14.4867 19.625 14.4789 19.5944 14.4572L17.9277 13.2519L15.6981 11.6399L14.0314 10.4345C14.0007 10.412 13.9822 10.3802 13.9766 10.3453C13.9741 10.3142 13.979 10.2816 13.9991 10.2553L14.4539 9.67239C14.4539 9.67239 14.953 9.05149 15.3909 8.48957L17.2665 9.84624L19.2984 11.3154L21.174 12.6721C20.7362 13.2332 20.237 13.8549 20.237 13.8549L19.7823 14.437Z" fill="#AEB1BC"/>
<path d="M22.8901 15.6713L27.0863 10.2702L27.5145 9.72693C27.5145 9.72693 27.5226 9.71529 27.5274 9.70908C27.558 9.66872 27.5516 9.61517 27.5097 9.58646L26.3219 8.75833C26.2808 8.72961 26.226 8.74048 26.1953 8.78084C26.1913 8.78627 26.1816 8.79714 26.1816 8.79714L26.0211 8.99427L20.8388 15.6705H15.1314L12.9922 22.4561H27.2718L25.2551 15.6705L22.8901 15.6713ZM13.3808 22.1868L15.3346 15.9414H20.6291L20.1727 16.5297L19.5163 17.4028L19.4414 17.5316L19.372 17.6814L19.301 17.8506L19.2277 18.0299L19.1567 18.2255L19.0874 18.4172L19.0212 18.6104L18.9567 18.7998L18.8987 18.9799L18.8447 19.146L18.7971 19.2903L18.7608 19.4106L18.7334 19.503L18.71 19.5604C18.71 19.5604 18.706 19.5728 18.6947 19.5876C18.6818 19.6054 18.6011 19.6761 18.5358 19.6287C18.4729 19.5837 18.4802 19.4254 18.4858 19.3501C18.5052 19.1188 18.5245 18.8875 18.5439 18.657C18.5503 18.5763 18.4471 18.5297 18.381 18.567C18.0891 18.7292 17.9149 18.9256 17.7553 19.1499C17.7698 19.0971 17.7851 19.0443 17.7996 18.9923C17.8666 18.754 17.9617 18.5072 17.998 18.2627C18.019 18.123 17.9819 17.9569 17.8117 17.9298C17.6206 17.8995 17.4956 18.0928 17.4021 18.2201C17.1191 18.6042 16.9522 19.0924 16.6014 19.4269C16.4692 19.5527 16.3224 19.645 16.1321 19.593C15.912 19.5333 15.8265 19.7824 16.2152 19.8165C16.5974 19.8499 16.8812 19.4611 17.0554 19.1887C17.1812 18.9915 17.2916 18.7851 17.415 18.5864C17.4739 18.4909 17.536 18.3962 17.6037 18.3062C17.6327 18.2682 17.6875 18.1649 17.7392 18.151C17.8069 18.1331 17.79 18.1704 17.7851 18.2224C17.7754 18.3388 17.7246 18.4583 17.6932 18.5701C17.6585 18.6927 17.6238 18.8153 17.59 18.9372C17.5158 19.1995 17.4416 19.4619 17.3682 19.725C17.3344 19.8437 17.4981 19.8988 17.5666 19.8057C17.8391 19.4324 17.9746 19.1157 18.31 18.8658C18.3028 18.9481 18.2963 19.0296 18.2891 19.1118C18.2778 19.2476 18.2512 19.3912 18.2609 19.527C18.2762 19.749 18.4512 19.9027 18.6689 19.8057C18.7834 19.7545 18.8656 19.6776 18.8656 19.6776L18.8793 19.6691L18.9253 19.6357L19.0091 19.5822L19.1237 19.5061L19.2511 19.4145L19.3914 19.319L19.5567 19.2073L19.7244 19.0885L19.8921 18.9698L20.0598 18.851L20.2235 18.7307L20.3767 18.6198L20.5178 18.5088L20.6412 18.4164L20.7396 18.3287L20.817 18.2581L20.8194 18.2542L20.8218 18.2558L21.3435 17.662L22.678 15.9445H25.0463L26.8888 22.1899H13.3808V22.1868Z" fill="#005DA0"/>
<path d="M28.0525 9.98334L27.8953 9.87002C27.8639 9.84752 27.8195 9.85372 27.7961 9.88322L25.8012 12.4374C25.7778 12.4677 25.7843 12.5104 25.8149 12.5329L25.9722 12.6462C26.0036 12.6687 26.048 12.6625 26.0713 12.633L28.0662 10.0788C28.0896 10.0485 28.0832 10.0058 28.0525 9.98334Z" fill="#005DA0"/>
<path d="M20.0403 20.8584H24.0083L23.9245 20.5557H20.0403H16.1569L16.0723 20.8584H20.0403Z" fill="#005DA0"/>
</svg>

<svg xmlns="http://www.w3.org/2000/svg" width="70" height="30" fill="none"><path fill="#005DA0" d="M35.44 15.866a4.379 4.379 0 0 1-2.005-.465l.19-1.207c.57.292 1.159.458 1.797.458.71 0 1.02-.25 1.02-.682 0-.982-2.98-.566-2.98-2.653 0-1.057.708-1.913 2.349-1.913.63 0 1.314.125 1.814.325l-.181 1.18c-.536-.166-1.072-.266-1.564-.266-.803 0-1.019.266-1.019.598 0 .973 2.98.524 2.98 2.636.001 1.233-.889 1.99-2.4 1.99m8.018-1.34v1.223h-4.406V9.514h4.405v1.238h-2.946v1.24h2.393v1.113h-2.393v1.422zm3.611-.807h-.864v2.029h-1.46V9.514h2.324c1.797 0 2.531.681 2.531 2.136 0 1.314-.726 2.07-2.531 2.07m0-3.034h-.864v1.912h.864c.717 0 1.028-.175 1.028-.956 0-.748-.276-.956-1.028-.956m6.983 3.85h-2.35l-.363 1.214h-1.537l2.236-6.236h1.737l2.264 6.236h-1.624zm-1.348-3.31-.648 2.138h1.65l-.622-2.137-.174-.657h-.026zm-17.317 8.571-.016.587h-1.905v-2.896h.682v2.31zm1.822.363-.013-.004c-.148.17-.381.267-.658.267-.461 0-.754-.252-.754-.776 0-.433.313-.73.867-.73.18 0 .337.027.465.066v-.135c0-.236-.128-.344-.461-.344-.268 0-.445.039-.67.127l-.052-.479c.245-.1.521-.154.834-.154.718 0 .967.297.967.938v1.449h-.477zm-.094-.78a1.02 1.02 0 0 0-.345-.05c-.276 0-.405.105-.405.309 0 .228.14.309.345.309.212 0 .405-.124.405-.274zm1.964 1.05a1.65 1.65 0 0 1-.762-.162l.065-.494c.2.111.485.166.694.166.249 0 .353-.097.353-.236 0-.375-1.127-.159-1.127-.977 0-.42.297-.722.922-.722.244 0 .486.047.69.127l-.052.49a1.95 1.95 0 0 0-.65-.119c-.205 0-.317.078-.317.197 0 .355 1.111.143 1.111.95 0 .468-.268.78-.927.78m2.15-1.938v1.197c0 .182.096.259.289.259a.696.696 0 0 0 .193-.028l.036.436a1.217 1.217 0 0 1-.417.066c-.486 0-.723-.27-.723-.714v-1.216h-.272v-.448h.3l.105-.53.49-.042v.57h.541v.449h-.542zm1.745 1.938c-.293 0-.558-.054-.762-.162l.064-.494c.2.111.486.166.694.166.25 0 .354-.097.354-.236 0-.375-1.128-.159-1.128-.977 0-.42.297-.722.923-.722.244 0 .485.047.69.127l-.053.49c-.2-.08-.469-.119-.65-.119-.204 0-.316.078-.316.197 0 .355 1.11.143 1.11.95 0 .468-.268.78-.926.78m3.038-1.814a1.315 1.315 0 0 0-.413-.073c-.453 0-.601.182-.601.676 0 .502.212.699.59.699.16 0 .313-.031.44-.089l.045.467c-.144.086-.361.135-.621.135-.719 0-1.1-.394-1.1-1.212 0-.776.334-1.212 1.112-1.212.204 0 .433.042.585.1zm2.05 1.767v-1.49c0-.24-.125-.363-.39-.363a.526.526 0 0 0-.413.178v1.675h-.621V17.38l.621-.031v.532l-.008.309.012.008a.95.95 0 0 1 .606-.201c.514 0 .814.332.814.895v1.49zm1.275.001v-2.325l.497-.023.057.39h.012c.152-.281.39-.42.666-.42.109 0 .2.015.264.035l-.04.59a.92.92 0 0 0-.264-.038c-.325 0-.566.228-.566.617v1.174zm2.412-2.591c-.24 0-.357-.066-.357-.254 0-.166.116-.259.357-.259.245 0 .353.089.353.259s-.108.254-.353.254m-.321 2.591v-2.325l.638-.027v2.352zm1.532 0v-1.895h-.305v-.444h.305v-.101c0-.352.252-.641.835-.641.136 0 .288.02.393.05l-.036.386a1.121 1.121 0 0 0-.232-.023c-.245 0-.337.092-.337.243v.085h.517v.444h-.517v1.895zm2.416-1.892v1.197c0 .182.096.259.288.259a.695.695 0 0 0 .193-.028l.036.436a1.216 1.216 0 0 1-.416.066c-.486 0-.723-.27-.723-.714v-1.216h-.273v-.448h.301l.104-.53.49-.042v.57h.54v.449h-.54z"/><path fill="#AEB1BC" d="m22.39 10.874-2.78-2.011-2.782-2.013a.451.451 0 0 0-.615.083l-2.449 3.138a.406.406 0 0 0-.074.16.414.414 0 0 0 .16.442l1.658 1.199 2.239 1.619 1.657 1.198c.146.106.339.11.486.026a.428.428 0 0 0 .139-.114l2.449-3.137a.412.412 0 0 0-.087-.591m-5.743-3.782 1.657 1.198 1.12.81 1.12.81 1.657 1.197a.134.134 0 0 1 .03.192l-.397.527-1.876-1.357L17.926 9l-1.875-1.356.397-.527a.147.147 0 0 1 .2-.025m3.135 7.345a.134.134 0 0 1-.084.046.15.15 0 0 1-.104-.026l-1.666-1.205-2.23-1.612-1.667-1.206a.136.136 0 0 1-.054-.089.129.129 0 0 1 .022-.09l.455-.583s.499-.62.937-1.182l1.876 1.356 2.031 1.47 1.876 1.356c-.438.561-.937 1.183-.937 1.183z"/><path fill="#005DA0" d="m22.89 15.671 4.196-5.4.429-.544.012-.018c.031-.04.025-.094-.017-.123l-1.188-.828a.092.092 0 0 0-.127.023l-.013.016-.16.197-5.183 6.677H15.13l-2.139 6.785h14.28l-2.017-6.785zm-9.51 6.516 1.955-6.246h5.294l-.456.589-.657.873-.075.129-.069.15-.071.169-.073.179-.071.195-.07.192-.066.193-.064.19-.058.18-.054.166-.048.144-.036.12-.028.093-.023.057s-.004.013-.015.028c-.013.017-.094.088-.16.04-.062-.044-.055-.203-.05-.278l.059-.693c.006-.08-.097-.127-.163-.09a1.819 1.819 0 0 0-.626.583l.045-.158c.067-.238.162-.485.198-.73.021-.139-.016-.305-.186-.332-.191-.03-.316.163-.41.29-.283.384-.45.872-.8 1.207-.133.126-.28.218-.47.166-.22-.06-.306.19.083.224.382.033.666-.356.84-.628.126-.198.237-.404.36-.603a3.67 3.67 0 0 1 .189-.28c.029-.038.084-.141.135-.155.068-.018.051.02.046.071-.01.117-.06.236-.092.348a226.246 226.246 0 0 0-.325 1.155c-.034.119.13.174.199.08.272-.373.408-.69.743-.94l-.02.247c-.012.136-.039.28-.03.415.016.222.191.376.409.279.114-.052.197-.128.197-.128l.013-.009.046-.033.084-.054.115-.076.127-.091.14-.096.166-.112.167-.119.168-.118.168-.119.164-.12.153-.111.14-.111.124-.093.099-.087.077-.07.002-.005.003.002.521-.594 1.335-1.717h2.368l1.843 6.245H13.38z"/><path fill="#005DA0" d="m28.053 9.983-.158-.113a.073.073 0 0 0-.099.013l-1.995 2.554a.067.067 0 0 0 .014.096l.157.113a.073.073 0 0 0 .1-.013l1.994-2.554a.067.067 0 0 0-.014-.096M20.04 20.858h3.968l-.084-.302h-7.767l-.085.302z"/></svg>
